X:1
T:Don’t You Want to Go?
T:Don’t You Want to Go?
T:James David Vaughan
T:James David Vaughan, 1904
T:Public Domain Courtesy of the Cyber Hymnal™
T:Public Domain Courtesy of the Cyber Hymnal™
C:James David Vaughan
Z:Public Domain
Z:Courtesy of the Cyber Hymnal™
%%score ( 1 2 ) ( 3 4 )
L:1/8
Q:1/4=97
M:4/4
K:Ab
V:1 treble 
V:2 treble 
V:3 bass 
V:4 bass 
V:1
 [Ec]>[Ec] [Ec]>[DB] [CA]2 [CE]>[CE] | [DF]>[EG] [FA]>[DF] [CE]4 | %2
w: 1.~Don’t you want to go to that|hap- py home on high?|
w: 2.~Think how ma- ny prayers have been|of- fered up for you:|
w: 3.~Time is swift- ly pass- ing, and|soon will close the gate.|
w: 4.~Could you stand in judg- ment, if|you should die to- day?|
 [EA]>[EA] [EA]>[EB] [Ac]2 [Ac]2 | [Gd]>[Ac] [EB]>A [GB]4 | [Ec]>[Ec] [Ec]>[DB] [CA]2 [CE]>[CE] | %5
w: Where the good shall meet, yes|meet to part no more.|And shall live and reign far a-|
w: Oft- en while you slept, dear|mo- ther’s tears did flow.|Turn and seek sal- va- tion, O|
w: Then your soul must sink in|ev- er- last- ing woe;|Give your heart to Je- sus, for|
w: All that you have writ- ten|you must face, you know.|Je- sus now is plead- ing, He’ll|
 [DF]>[EG] [FA]>[DF] [CE]4 | [CA]>[CA] [CA]>[DB] [Ec]2 [EA]2 | [EB]>[GB] [Ac]>[EB] [EA]4 || %8
w: bove the star- ry sky.|In that sun- ny clime up-|on the gold- en shore.|
w: to her love be true.|While your friends are wait- ing,|don’t you want to go?|
w: soon ’twill be too late.|Mo- ther now is wait- ing,|don’t you want to go?|
w: wash your sins a- way.|To that home in glo- ry,|don’t you want to go?|
"^Refrain" [Ae]>[Ae] [Ae]>[Af] [Ae]4 | [Ec]>[EB] [CA]>[DF] [CE]4 | [CA]>[CA] [CA]>[DB] [Ec]4 | %11
w: |||
w: |||
w: |||
w: |||
 [Ae]>[Ac] [GB]>A [GB]4 | [Ae]>[Ae] [Ae]>[Af] [Ae]4 | [Ec]>[EB] [CA]>[DF] [CE]4 | %14
w: |||
w: |||
w: |||
w: |||
 [CA]>[CA] [CA]>[DB] (c2 A2) | [EB]>[GB] [Ac]>[EB] [EA]4 |] %16
w: ||
w: ||
w: ||
w: ||
V:2
 x8 | x8 | x8 | x7/2 A/ x4 | x8 | x8 | x8 | x8 || x8 | x8 | x8 | x7/2 A/ x4 | x8 | x8 | x4 E4 | %15
 x8 |] %16
V:3
 [A,,A,]>[A,,A,] [A,,A,]>[A,,E,] [A,,E,]2 [A,,A,]>[A,,A,] | [D,A,]>[D,A,] [D,A,]>[D,A,] [A,,A,]4 | %2
w: ||
 [A,C]>[A,C] [A,C]>[A,D] [A,E]2 [A,E]2 | [B,E]>[A,E] [G,E]>[G,=D] [E,E]4 | %4
w: ||
 [A,,A,]>[A,,A,] [A,,A,]>[A,,E,] [A,,A,]2 [A,,A,]>[A,,A,] | [D,A,]>[D,A,] [D,A,]>[D,A,] [A,,A,]4 | %6
w: ||
 A,>A, A,>A, A,2 [A,C]2 | [E,D]>[E,D] [E,E]>[E,D] [A,,C]4 || [A,C]>[A,C] [A,C]>[A,D] [A,C]4 | %9
w: Don’t you want to go? *||Don’t you want to go?|
 A,>[E,G,] [F,A,]>[D,A,] [A,,A,]4 | A,>A, A,>A, A,4 | [G,B,]>[A,E] [E,E]>[F,=D] [E,E]4 | %12
w: While we plead and pray,|make the start to- day;|Je- sus bids you come|
 [A,C]>[A,C] [A,C]>[A,D] [A,C]4 | A,>[E,G,] [F,A,]>[D,A,] [A,,A,]4 | A,>A, A,>A, (A,2 C2) | %15
w: to that hap- py home:|Don’t you want to go?|Don’t you want to go? *|
 [E,D]>[E,D] [E,E]>[E,D] [A,,C]4 |] %16
w: |
V:4
 x8 | x8 | x8 | x8 | x8 | x8 | A,>A, A,>A, A,2 x2 | x8 || x8 | A,3/2 x13/2 | A,>A, A,>A, A,4 | x8 | %12
 x8 | A,3/2 x13/2 | A,>A, A,>A, A,4 | x8 |] %16

